X:1
T:Domine quis habitabit
T:Domine quis habitabit
T:Jean Courtois
C:Jean Courtois
%%score [ 1 [ 2 3 ] 4 ]
L:1/8
Q:1/4=120
M:2/2
K:C
V:1 treble nm="Soprano" snm="S"
V:2 treble-8 nm="Tenor 1" snm="T 1"
V:3 treble-8 nm="Tenor 2" snm="T 2"
V:4 bass nm="Bass" snm="B"
V:1
 z8 | z8 | G6 G2 | G2 G2 A2 B2 | c4 G2 G2 | c3 B A2 G2 | A3 G/F/ ED E2 | D4 z2 A2 | A2 B2 c2 A2 | %9
w: ||Do- mi-|ne quis ha- bi-|ta- bit in|ta- * * ber-|na- cu- * lo _ tu-|o, in|ta- ber- na- *|
 B2 c2 d4 | G4 z2 G2- | G2 c4 B2 | A2 G2 A2 B2 | A4 z4 | z2 A2 A2 A2 | B3 A/B/ c2 d2 | B2 c4 BA | %17
w: cu- lo tu-|o, in|_ ta- ber-|na- cu- lo tu-|o,|in ta- ber-|na- * * * cu-|lo tu- * *|
 G8 | z2 G4 G2 | A2 G2 c4 | B2 c2 A4 | G2 c4 BA | B2 B2 GA Bc | d2 A2 B2 A2- | AG G4 F2 | G8- | %26
w: o?|Aut quis|re- qui- es-|cet in mon-|te san- * *|* cto tu- * * *|||o?|
 G8- | G8 | z8 | z4 z2 G2 | G2 A2 B2 c2 | d2 e4 d2 | c2 c2 B2 c2 | c2 c2 d4 | G2 G2 c3 B | %35
w: _|||Qui|in- gre- * di-|tur si- ne|ma- cu- la, et|o- pe- ra-|tur ju- sti- i-|
 A2 d3 cBA | GFED E2 F2- |"^b" F2 G2 B2 B2 | A4 z2 d2 | d2 d2 e4 | A2 A2 ABcA | BG c3 B BA/B/ | %42
w: am, ju- * * *|sti- * * * * *|* * * ti-|am, et|o- pe- ra-|tur ju- sti- * * *|* * ti- * * * *|
 c8 | z2 G2 G3 A | B2 B2 A2 B2 | c2 A2 G2 A2 | F4 E4 | z2 A2 F2 G2 | A2 G4 F2 | G4 z4 | z8 | z8 | %52
w: am.|Qui lo- *|* qui- tur ve-|ri- ta- tem in|cor- de|su- * *||o.|||
 z4 d4 | c2 A2 c2 c2 | G2 c4 B2 | A2 A2 G4 | z2 c2 e4 | d2 c4 c2 | B2 A2 c3 d | ec d3 cAB | %60
w: Qui|non e- bit do-|lum in lin-|gua su- a,|nec fe-|cit pro- xi-|mo su- o _|_ _ ma- * * *|
 c2 B2 d3 c | AB c3 BAG | F4 E4 | z8 | z8 | z8 | z2 d4 d2 | e2 d2 B2 B2 | c2 d2 edcB | %69
w: ||* lum,||||et op-|pro- bri- um non|ac- ce- * * * *|
 A2 B2 A2 dc | BA B3 AGF | ED d3 c c2- | c2 B2 c3 d | B4 z2 A2 | B2 G4 A2- | AG F2 E2 F2- | %76
w: pit, non ac- ce- *||||pit ad-|ver- sus pro-|* * xi- mos su-|
 FG A3 G G2- |"^#""^#""^#" GFFE/F/ G4 | z2 A2 B2 G2- | G2 A2 AG F2 | E2 F3 G A2- | AG G4 F2 | G8 || %83
w: |* * * * * os,|ad- ver- sus|_ pro- xi- * *|mos su- * *||os.|
 c4 c3 B | A2 c2 B2 A2 | G2 A2 A2 A2 | d3 c BA B2- | BAGF E2 G2 | %88
w: Ad ni- *|* hi- lum de-|duc- tus est in|con- * * * spe-|* * * * * tu|
"^SECUNDA\n      PARS" AGAB cd e2 | d2 c3 B/A/ B2 | c2 c2 c3 B | A2 c2 B2 A2 | G4 z2 G2 | %93
w: e- * * * * * *||ius, ad ni- hi-|lum de- duc- tus|est in|
 G2 G2 c2 c2- | cBAG F2 A2- | AB c3 BcG | B2 G3 F/E/ F2 | G8 | z8 | z2 G2 G2 F2 | G3 F G2 A2 | %101
w: con- spe- ctu e-|* * * * ius ma-|* * li- * * *||gnus.||Ti- men- tes|au- * * tem|
 G6 F2 | E2 c2 c2 A2 | c3 B c2 d2 | c6 B2 | A2 B2 defe | dc c3 B/A/ B2 | c8 | z8 | z8 | %110
w: Do- mi-|num, ti- men- tes|au- * * tem|Do- mi-|num glo- ri- * * *|fi- * * * * *|cat.|||
 z2 e2 e2 d2 | e3 d d2 c2 | B2 e4 d2 | B4 c2 d2- | d2 cB A4 | G4 G4- | G2 G2 F2 F2 | E4 z4 | z8 | %119
w: Qui ju- rat|pro- xi- mo su-|o, pro- xi-|mo su- *||o, et|_ non de- ci-|pit,||
 z2 G4 G2 | A3 B c2 c2 | B2 d3 cBA | G8 | z2 G2 c4- | c2 B2 G2 B2 | A4 G4- | G8 | z8 | z2 G2 A3 A | %129
w: qui pe-|cu- * * ni-|am su- * * *|am|non de-|* dit ad u-|su- ram,|_||ett mu- ne-|
 B2 G2 c3 e | d2 c2 B2 A2 | c2 d2 A2 d2- | dc/B/ c2 d2 B2 | A4 G4- | G4 z4 | z2 c4 B2 | %136
w: ra su- per in-|no- cen- tem non|ac- ce- pit, non|_ _ _ _ ac- ce-|* pit,|_|non a-|
"^#" A2 G4 F2 | G8- | G4 z2 G2 | A2 G2 c4 | z8 | z4 z2 c2 | d2 c2 f4 | z2 e4 d2 | c3 B c2 B2 | %145
w: ce- * *|pit.|_ Qui|fa- cit haec,-||qui|fa- cit haec|non mo-|ve- * * bi-|
 A2 d4 c2 | B3 A/G/ A4 | G8 | z8 | z2 F2 D2 E2 | F2 G2 D4 | E2 G4 F2 | EC c3 B/A/ B2 | c2 A4 G2 | %154
w: tur in ae-|ter- * * *|num,||in ae- ter-|* * num,|in ae- *|ter- * * * * *|num, non mo-|
 F3 E F2 E2 | D2 G2 G2 F2 | G8 | z2 A4 G2 | F3 E F2 E2 | D2 G4 F2 | G8- | G8 |] %162
w: ve- * * bi-|tur in ae- ter-|num,|non mo-|ve- bi- tur in|ae- * ter-|num.|_|
V:2
 z8 | z8 | z8 | z8 | c6 c2 | c2 c2 d2 e2 | f4 c2 c2 | f3 e d2 c2 | d3 c/B/ AG A2 | G2 d2 g4- | %10
w: ||||Do- mi-|ne quis ha- bi-|ta- bit in|ta- * * ber-|na- cu- * lo _ tu-|o, in ta-|
 g2 f2 e2 d2 | e3 d/c/ d2 d2 | c2 e3 f g2 | e2 e2 e2 e2 | f3 e d2 fe | dc d2 e2 f2- | fe e4 d2 | %17
w: * ber- na- cu-|lo _ _ _ tu-|o, in _ _|ta- ber- na- cu-|lo _ _ tu- *|||
 e8- | e8 | z2 c4 c2 | d2 c2 f4 | e2 e2 cdef | g4 z2 G2 | A2 F2 f4- | f2 e2 d3 c | B4 e4 | d4 z4 | %27
w: o?|_|Aut quis|re- qui- es-|cet in mon- * * *|te, in|mon- te San-|* cto tu- *||o?|
 z8 | z8 | z8 | z8 | z2 c4 d2 | e3 f g2 a2- | a2 g2 f2 f2 | e3 d ef g2- | g2 f2 g2 g2 | g2 g2 a4 | %37
w: ||||Qui in-|gre- di- tur si-|* ne ma- cu-|la, _ _ _ et|_ o- pe- ra-|tur- ju- sti-|
 d2 d2 g3 f | e2 a3 gfe | dcBA B2 c2 | e2 d4 g2- | gffe/f/ g4 | e4 z2 c2 | c3 d e2 e2 | %44
w: ti- am, ju- *|* sti- * * *|* * * * ti- am,|ju- * sti-|* * * * * ti-|am. Qui|lo- * * qui-|
 d2 e2 f2 d2 | c2 d2 B2 A2- | A2 a3 gef | g2 c2 d2 B2 | c2 BA G2 A2 | Bcde fg a2- | a2 gf e4 | %51
w: tur ve- ri- ta-|tem in cor- de|_ su- * * *|o, in cor- de|su- * * * *|||
 d4 z4 | g4 f2 d2 | f2 f2 c2 f2- | f2 e2 c2 d2- | dc c4 B2 | c8 | z2 f2 a4 | g2 f4 f2 | %59
w: o.|Qui non e-|bit do- lum in|_ lin- gua su-||a,|nec fe-|cit pro- xi-|
 e2 c2 f3 g | af g3 fde | f2 e2 c4 | z8 | z2 f2 a4 | g2 f4 f2 | e2 d2 f3 g | a2 g4 f2 | g2 g4 g2 | %68
w: mo su- o _|_ _ ma- * * *|* * lum,||nec fe-|cit pro- xi-|mo su- * *|o ma- *|lum, et op-|
 a2 g2 e2 e2 | f2 g2 a4 | z8 | z2 g4 g2 | a2 g2 e2 e2 | f2 g2 agfe | d2 d2 e2 c2 | d2 d2 e2 c2 | %76
w: pro- bri- um non|ac- ce- pit,||et op-|pro- bri- um non|ac- ce- * * * *|pit ad- ver- sus|pro- xi- mos su-|
 f3 e d2 e2 | d4 B2 c2 | A2 d3 c B2 | c2 A2 d4 | e2 c2 e3 e | d2 e2 d4 | d8 || z8 | z8 | z8 | z8 | %87
w: os, _ _ ad-|ver- sus pro-|xi- mos _ _|su- os, ad-|ver- sus pro- xi-|mos su- *|os.|||||
 z8 | z8 | z4 g4 | g3 f e2 g2 | f2 e2 d2 d2 | d2 d2 g3 f | ed e3 dcB | A2 c2 dcde | f2 e2 a4 | %96
w: ||Ad|ni- hi- lum de-|duc- tus est in|con- spe- ctu _|_ _ e- * * *|ius ma- li- * * *||
 g4 z4 | z2 d2 d2 B2 | d3 c d2 e2 | d6 c2 | B2 B2 B2 A2 | e4 z4 | z2 g2 g2 f2 | g6 g2 | a6 g2 | %105
w: gnus.|Ti- men- tes|au- * * tem|Do- mi-|num glo- ri- fi-|cat,|Ti- men- tes|au- tem|Do- mi-|
 f2 g2 f3 g | a2 f2 g3 f | ed e4 dc | d3 e f2 e2 | z2 a2 a2 g2 | a3 g g2 f2 | e4 z2 a2- | %112
w: num glo- ri- *|* fi- cat. _|_ _ _ _ _||Qui ju- rat|pro- xi- mo su-|o- et|
 a2 g2 e2 f2 | g6 fe | d2 g4 f2 | g2 c4 B2- | B2 AG A2 B2 | c2 e2 f2 g2- | g2 fe d4 | c2 e4 e2 | %120
w: _ non de- ci-|||pit, et non|_ de- * ce- pit|qui pe- cu- ni-|* am _ su-|am non de-|
 f3 f e2 f2 | g4 d2 g2- | gfed c2 d2- | d2 d2 e2 f2 | g2 GA BcdB | c2 A2 c4- | c2 B2 G2 B2 | %127
w: dit ad u- su-||* * * * ram, qui|_ pe- cu- ni-|am su- * * * * *|am non de-|* dit ad u-|
 A4 G4 | z4 z2 c2 | d3 d e2 c2 | f3 a g2 f2 | e2 d2 f2 g2 | e4 d4 | z2 c2 d3 d | edcB AB cd | %135
w: su- ram,|et|mu- ne- ra su-|per in- no- *|cen- tem non ac-|ce- pit,|et mu- ne-|ra _ _ _ su- * per _|
 e2 f2 g2 f2- | f2 e2 d3 c | B4 z2 d2 | e2 d2 g4 | z2 d2 e2 c2 | g4 z2 d2 | e2 c2 f4 | z4 d4 | %143
w: in- no- cen- tem|_ non ac- ce-|pit. Qui|fa- cit haec,|qui fa- cit|haec, qui|fa- cit haec,|qui|
 e2 c2 g4 | z2 a4 g2 | f3 e f2 e2 | d2 g4 f2 | e3 d c2 B2 | ABcd efge | f2 F2 A2 G2 | d4 z2 A2 | %151
w: fa- cit haec|non- mo-|ve- bi- * in|ae- ter- *|||num, qui fa- cit|haec non|
 B2 c3 B/A/ B2 | c2 g4 g2 | e3 d/e/ f2 d2 | d3 c A2 A2 | B2 c2 d3 c | BA c4 B2 | e3 d/e/ f2 d2 | %158
w: mo- ve- * * *|bi- tur, non|mo- * * ve- bi-|tur in ae- ter-|num, in ae- *|* * ter- *|* * * num, in|
 d3 c A2 A2 | B2 c2 d4 | z2 B2 e2 e2 | d8 |] %162
w: ae- * * ter-|* * num,|in ae- ter-|num.|
V:3
 G6 G2 | G2 G2 A2 B2 | c4 G2 G2 | c3 B A2 G2 | A3 B cded | cB AG F2 E2 | DEFG A4 | D2 d2 d2 e2 | %8
w: Do- mi-|ne quis ha- bi-|ta- bit in|ta- * * ber-|na- * * * * *|* * * * * cu-|lo _ _ _ tu-|o, n ta- ber-|
 f2 d2 e2 f2 | g4 d4 | z8 | z8 | z2 c2 c2 B2 | c2 A2 B2 c2 | d2 f3 edc | BA G4 F2 | G4 A4 | %17
w: na- * cu- lo|tu- o,|||in ta- ber-|na- co- lo tu-|o, tu- * * *||* o?|
 z2 B4 B2 | c2 B2 e4 | d2 e2 cdef | g2 e2 d2 c2- | c2 A3 B c2 | d4 e4 | f3 e d2 d2 | c3 B A4 | %25
w: Aut quis|re- qui- es-|cet in mon- * * *|* te san- cto|_ tu- * *|o, _|tu- * * o,|tu- * o?|
 z2 G4 A2 | B3 c d2 e2- | e2 d2 c2 c2 | B2 cB cd e2- | eddc/d/ e4 | z2 d4 e2 | f2 g6 | c4 z2 c2- | %33
w: Qui in-|gre- di- tur si-|* ne ma- cu-|la, _ _ _ _ _|_ _ _ _ _ _|si- ne|ma- cu-|la, si-|
 c2 G2 A2 B2 | c2 c2 c2 c2 | d4 G2 G2 | c3 B A2 d2- | dcBA G2 d2- | d2 c2 d4 | z2 g3 fed | %40
w: * ne ma- cu-|la, et o- pe-|ra- tur ju-|sti- * * *||* ti- am,|ju- * * *|
 c2 f4 e2 | d2 c2 d4 | c8 | z8 | z8 | z8 | z2 c2 c3 d | e2 e2 d2 e2 | f2 d2 c2 d2- | d2 B2 A2 d2 | %50
w: * sti- *|* * ti-|am.||||Qui lo- *|* qui- tur ve-|ri- ta- tem in|_ cor- de su-|
 c2 A2 c2 c2 | G2 g4 f2 | e2 e2 d4 | z4 z2 c2- | cd e2 f2 g2 | e2 f2 d4 | e8 | z8 | z8 | z8 | z8 | %61
w: o. Qui non e-|git do- num|in lin- gua,|in|_ _ _ lin- gua|su- * *|a,|||||
 z2 c2 e4 | d2 c4 c2 | B2 A2 c3 d | ec d3 cAB | c2 B2 d4 | c2 B2 A4 | G4 z4 | z8 | d6 d2 | %70
w: nec fe-|cit pro- xi-|mo su- * *|* * o _ _ _|_ _ ma-||lum,||et op-|
 e2 d2 B2 B2 | c2 d2 e4 | z2 d2 cdec | d2 e2 A2 d2- | d2 B2 c2 A2- | A2 B2 c2 A2 | d3 c B2 c2 | %77
w: pro- bri- um non|ac- ce- pit,|et op- * * *|pro- bri- um non|_ ac- ce- pit|_ ad- ver- sus|pro- xi- mos su-|
 A4 G4 | z8 | z4 z2 B2 | c2 A2 d3 c | B2 c2 A4 | G8 || z4 f4 | f3 e d2 f2 | e2 d2 c2 d2 | %86
w: * os,||ad-|ver- sus pro- xi-|mos su- *|os.|Ad|ni- * * hi-|lum de- duc- tus|
 d2 d2 g3 f | ed e3 dcB | ABcd e3 f | g2 c2 d4 | e2 c3 dec | d2 g3 f/e/ f2 | g3 f/e/ dc d2 | %93
w: est in con- *|* * spe- * * *||* * ctu|e- * * * *|||
 c4 z4 | z2 A2 A2 A2 | c3 d ec f2 | d2 e4 dc | B8- | B8 | z8 | z8 | z2 c2 c2 A2 | c3 B c2 d2 | %103
w: ius,|in con- spe-|ctu e- * * *|ius ma- li- *|gnus.|_|||Ti- men- tes|au- * * tem|
 c6 B2 | A2 f2 f2 d2 | d4 z2 de | fedc d2 d2 | c6 BA | B2 d2 d2 c2 | d3 d c2 B2 | A3 B c2 d2 | %111
w: Do- mi-|num glo- ri- fi-|cat, glo- *|* * * * ri- fi-||* qui ju- rat|pro- xi- mo su-||
 ABcA B2 A2 | e4 z4 | z2 e4 d2 | B2 c2 d4 | z2 e4 d2 | B2 c2 d4 | z2 c4 BA | G2 c4 B2 | c2 c4 c2 | %120
w: |o,|et non|de- ce- pit,|et nn|de- ce- pit,|et _ _|non de- ce-|pit, qui pe-|
 c3 c c2 c2 | d2 d2 g4 | e4 z2 d2 | g4 c2 c2 | d2 e2 d2 d2 | f6 e2 | c2 e2 d4 | c2 c2 d3 d | %128
w: cu- ni- am su-|am non de-|dit, non|de- dit ad|u- su- ram, ad|u- *|* * su-|ram,- et mu- ne-|
 edcB A4 | G4 z4 | z8 | z8 | z4 G4 | A3 A B2 G2 | c3 e d2 c2 | B2 A2 c2 d2- | dc B2 A4 | %137
w: a, _ _ _ _|_|||et|mu- ne- ra su-|per in- no- cen-|tem non ac- ce-||
 G2 d2 e2 d2 | g3 f ed c2- | cd B2 A4 | G2 B2 c2 B2 | AGAB c3 B | A2 G2 A2 F2 | c3 B G4 | z8 | z8 | %146
w: pit,. Qui fa- it|haec _ _ _ qui|_ _ fa- cit|haec, qui fa- ct|haec _ _ _ _ _|_ qui fa- cit|haec, _ _|||
 z8 | z2 e4 d2 | c3 B c2 B2 | A2 d4 c2 | B3 A/G/ A4 | G4 z4 | z2 e4 d2 | c3 B c2 B2 | A2 d4 c2 | %155
w: |non mo-|ve _ _ bi-|tur in ae-|ter- * * *|num,|non mo-|ve- * * bi-|tur in ae-|
 B3 A/G/ A4 | G2 e4 d2 | c3 B c2 B2 | A2 d4 c2 | B3 A/G/ A4 | G8- | G8 |] %162
w: ter- * * *|num, non mo-|ve- * * bi-|tur in ae-|ter- * * *|num.|_|
V:4
 z8 | z8 | z8 | z8 | z8 | z8 | z8 | z8 | z8 | G,6 G,2 | G,2 G,2 A,2 B,2 | C4 G,2 G,2 | %12
w: |||||||||Do- mi-|ne quis ha- bi-|ta- bit in|
 C3 B, A,2 G,2 | A,3 G,/F,/ E,D, E,2 | D,4 z2 D,2 | G,3 F, E,2 D,2 | E,4 F,4 | E,8 | z2 E,4 E,2 | %19
w: ta- * * ber-|na- cu _ lo _ tu-|o, in|ta- ber- na- cu-|lo tu-|o?|Aut quis|
 F,2 E,2 A,4 | G,2 A,2 F,G,A,B, | C3 B, A,2 A,2 | G,3 F, E,4 | D,4 z2 D,2 | E,2 C,2 D,4 | E,6 F,2 | %26
w: re- qui- es-|cet in mon- * * *|* te san- cto|tu- * *|o, in|mon- te san-|cto tu-|
 G,4 z2 C,2- | C,2 D,2 E,3 F, | G,2 A,4 G,2 | F,2 F,2 E,3 D, | E,2 F,2 G,2 F,E, | D,2 C,2 C2 B,2 | %32
w: o? Qui|_ in- gre- di-|tur si- ne|ma- cu- la, _|_ si- ne ma- *|cu- la, qui in-|
"^b" A,2 A,2 G,2 F,2- | F,2 E,2 D,2 D,2 | C,8 | z8 | z8 | z2 G,2 G,2 G,2 | A,4 D,2 D,2 | %39
w: gre- di- tur si-|* ne ma- cu-|la,|||et o- pe-|ra- tur ju-|
 G,3 F, E,2 A,2- | A,G,F,E, D,2 C,2 | G,2 A,2 G,4 | C,8- |"^#" C,8 | z8 | z4 z2 F,2 | %46
w: sti- * * *||* * ti-|am.|_||Qui|
 F,3 G, A,2 A,2 | G,2 A,2 B,2 G,2 | F,2 G,2 E,2 D,2 | G,4 F,2 D,2 | F,2 F,2 C,2 C2- | %51
w: lo- qui- tur ve-|ri- ta- tem in|cor- de su- o.|Qui non e-|git do- num in|
 C2 B,2 A,2 A,2 | G,4 z4 | z2 F,3 G,A,B, | C3 B, A,2 G,2 | A,2 F,2 G,4 | C,8 | z8 | z8 | z8 | z8 | %61
w: _ lin- gua su-|a,|in _ _ _|lin- * * *|* gua su-|a,|||||
 z8 | z2 F,2 A,4 | G,2 F,4 F,2 | E,2 D,2 F,3 G, | A,F, G,2 D,3 E, | F,2 G,2 C,4 | G,8 | z8 | z8 | %70
w: |nec fe-|ct pro- xi-|mo su- * *|* * o ma- *||lum,|||
 G,6 G,2 | A,2 G,2 E,2 E,2 | F,2 G,2 A,4 | z2 E,2 F,2 D,2 | G,3 F, E,2 F,2 | D,4 C,2 F,2- | %76
w: et op-|pro- bri- um non|ac- ce- pit|ad- ver- sus|pro- xi- mos su-|* os, su-|
"^#" F,E, D,2 G,2 C,2 | D,4 z2 E,2 | F,2 D,2 G,3 F, | E,2 F,2 D,4 | C,2 F,3 E, D,2 | G,2 C,2 D,4 | %82
w: |os, ad-|ver- sus pro- *|* xi- mos|su- * * *||
 G,8 || z8 | z8 | z8 | z8 | z4 C4 | C3 B, A,2 C2 | B,2 A,2 G,4 | z8 |"^#""^#" z8 | G,4 G,2 G,2 | %93
w: os.|||||Ad|ni- hi- lum de-|duc- tus est|||in con- spe-|
 C3 B, A,G, A,2- | A,G,F,E, D,E,F,G, | A,G,A,B, C2 F,2 | G,4 A,4 | G,8 | z2 G,2 G,2 E,2 | %99
w: ctu _ _ _ e-||* * * * us ma-|li- *|gnus.|Ti- men- tes|
 G,3 F, G,2 A,2 | G,6 F,2 | E,2 C,2 C,2 D,2 | C,4 z4 | z8 | F,4 F,2 G,2 |"^b" D,2 G,2 B,3 A,/G,/ | %106
w: au- * * tem|Do- mi-|num glo- ri- fi-|cat,||Do- mi- num|glo- ri- * * *|
 F,2 A,2 G,4 | C,4 z2 A,2 | A,2 G,2 A,3 A, | G,2 F,2 E,4 | z8 | z8 | z8 | z8 | z8 | %115
w: * * fi-|cat, qui|ju- rat pro- xi-|mo su- o,||||||
 C,3 D, E,F, G,2- | G,2 F,E, D,4 | A,6 G,2 | E,2 F,2 G,4 | z2 C,4 C,2 | F,3 G, A,2 A,2 | %121
w: pro- xi- * * mo|_ su- * o|et non|de- ce- pit,|qui pe-|cu- ni- am su-|
 G,4 z2 G,2 | C6 B,2 | G,2 B,2 A,4 | G,4 G,4 | F,3 E, C,3 D, | E,F,G,A, B,2 G,2 | %127
w: am non|de- dit|ad u- su-|ram, ad|u- * su- *|ram, _ _ _ _ ad|
 A,2 C3 B,/A,/ B,2 | C4 z4 | z8 | z8 | z4 z2 G,2 | A,3 A, B,2 G,2 | C4 z4 | z2 C,2 F,3 A, | %135
w: u- su- * * *|ram,|||et|mu- ne- ra su-|per|in- no- cen-|
 G,2 F,2 E,2 D,2 | F,2 G,2 D,4 | G,8- | G,4 z4 | z8 | z2 G,2 A,2 G,2 | C3 B, A,G, F,2- | %142
w: tem non ac- ce-||pit.|_||Qui fa- cit|haec, _ _ _ qui|
 F,G, E,2 D,4 | C,4 z4 | z8 | z8 | z8 | z8 | z2 A,4 G,2 | F,3 E, F,2 E,2 |"^#" D,2 G,4 F,2 | %151
w: _ _ fa- cit|haec,|||||non mo-|ve- * * bi-|tur in ae-|
 E,3 D,/C,/ D,2 D,2 | C,4 G,4 |"^#" A,3 G, F,2 G,2 | D,4 z2 A,,2 | D,2 E,2 D,2 D,2 | E,2 C,2 G,4 | %157
w: * * * * ter-|num, non-|mo- * * bi-|tur, qui|fa- cit haec qui|fa- cit haec|
 A,3 G, F,2 G,2 | D,4 z2 A,,2 | D,2 E,2 D,4 | z2 E,2 C,2 C,2 | G,8 |] %162
w: non mo- ve- bi-|tur in|ae- ter- num|in ae- ter-|um.|

